X: 28
T: The HARLEQUIN
%R: hornpipe
B: Jean White "100 Popular Hornpipes, Reels, Jigs and Country Dances", Boston 1880 p.12
F: http://www.loc.gov/resource/sm1880.09124.0#seq-1
Z: 2014 John Chambers <jc:trillian.mit.edu>
M: C|
L: 1/8
K: Bb
% - - - - - - - - - - - - - - - - - - - - - - - - - - - - -
F>E |\
D>FB,>B A>cF>e | d>fB>b a>fe>c |\
d>AB>^F G>ge>c | A>fG>=e (3f_ec (3AFE |
(3DFB, (3EGB (3AcF (3Bdf | G>Bc>d f>^fg>=E |\
(3Ff=e (3fdB (3F_ed (3ecA | (3BdD (3EGA, B,2 :|
|: c>B |\
c>Fe>c B>Fd>B | g>ed>g f>dB>f |\
e>dc>=B c>Gc>_B | A>f=e>g f2 (3fba |
(3bfe (3dcB (3gec (3fdB | (3ecA (3FAc (3dBb (3fdB |\
(3Ggf (3edc (3BAG (3FGA | B2 (3dfb B2 H:|
% - - - - - - - - - - - - - - - - - - - - - - - - - - - - -

%%sep 1 1 500
%%sep 1 1 500
